svgs/duotone/bridge.svg

<svg xmlns="http://www.w3.org/2000/svg" viewBox="0 0 576 512"><!--! Font Awesome Pro 6.6.0 by @fontawesome - https://fontawesome.com License - https://fontawesome.com/license (Commercial License) Copyright 2024 Fonticons, Inc. --><path class="fa-secondary" style="fill:var(--fa-secondary-color,inherit);opacity:var(--fa-secondary-opacity,.4);" d="M0 64C0 46.3 14.3 32 32 32l512 0c17.7 0 32 14.3 32 32s-14.3 32-32 32l-40 0 0 64-48 0 0-64-80 0 0 64-48 0 0-64-80 0 0 64-48 0 0-64-80 0 0 64-48 0 0-64L32 96C14.3 96 0 81.7 0 64z"/><path class="fa-primary" style="fill:var(--fa-primary-color,inherit);opacity:var(--fa-primary-opacity,1);" d="M0 160H576V288c-53 0-96 43-96 96v64c0 17.7-14.3 32-32 32H416c-17.7 0-32-14.3-32-32V384c0-53-43-96-96-96s-96 43-96 96v64c0 17.7-14.3 32-32 32H128c-17.7 0-32-14.3-32-32V384c0-53-43-96-96-96V160z"/></svg>

<svg xmlns="http://www.w3.org/2000/svg" viewBox="0 0 576 512"><!--! Font Awesome Pro 6.4.2 by @fontawesome - https://fontawesome.com License - https://fontawesome.com/license (Commercial License) Copyright 2023 Fonticons, Inc. --><path class="fa-primary" style="fill:var(--fa-primary-color,inherit);opacity:var(--fa-primary-opacity,1);" d="M0 160H576V288c-53 0-96 43-96 96v64c0 17.7-14.3 32-32 32H416c-17.7 0-32-14.3-32-32V384c0-53-43-96-96-96s-96 43-96 96v64c0 17.7-14.3 32-32 32H128c-17.7 0-32-14.3-32-32V384c0-53-43-96-96-96V160z"/><path class="fa-secondary" style="fill:var(--fa-secondary-color,inherit);opacity:var(--fa-secondary-opacity,.4);" d="M0 64C0 46.3 14.3 32 32 32H544c17.7 0 32 14.3 32 32s-14.3 32-32 32H504v64H456V96H376v64H328V96H248v64H200V96H120v64H72V96H32C14.3 96 0 81.7 0 64z"/></svg>
